X: 15
T: Red Breeches and black Stockings
%R: slip-jig
B: "Twenty Four Country Dances with Figures for the Year 1810", Button & Whitaker, p.8 #1
F: http://www.vwml.org/browse/browse-collections-dance-tune-books/browse-button1810
Z: 2014 John Chambers <jc:trillian.mit.edu>
M: 9/8
L: 1/8
K: D
% - - - - - - - - - - - - - - - - - - - - - - - - - - - - -
|:\
a2g fga def | efg fed cBA |\
a2g fga def | Bgf edc d3 :|
|:\
c2d ecA gfe | dcd faf e2f |\
gab agf edc | Bcd edA d3 :|
% - - - - - - - - - - Dance description - - - - - - - - - -
%%begintext align
%%   Set & half right & left. back again, down
%% the middle up again, cast off & Allemande.
%%endtext

%%sep 1 1 500
%%sep 1 1 500
